**harm	**harte	**timestamp	**phrase	**leadinstrument	**kern
*M4/4	*M4/4	*	*	*	*
*A-:	*A-:	*	*	*	*A-:
1r;	N	0	.	r	1r;
=1	=1	=1	=1	=1	=1
*>A_intro	*>A_intro	*>A_intro	*>A_intro	*>A_intro	*>A_intro
1r	N	0.255	newline	drums	1r
=2	=2	=2	=2	=2	=2
1r	N	1.637	.	drums	1r
=3	=3	=3	=3	=3	=3
1I	A-:1	3.019	newline	bass	1A- 1cc 1ee-
=4	=4	=4	=4	=4	=4
1I	A-:1	4.318	.	bass	1A- 1cc 1ee-
=5	=5	=5	=5	=5	=5
1I	A-:1	5.617	.	bass	1A- 1cc 1ee-
=6	=6	=6	=6	=6	=6
1I	A-:1	6.916	.	bass	1A- 1cc 1ee-
=7	=7	=7	=7	=7	=7
1I	A-:1	8.215	newline	bass	1A- 1cc 1ee-
=8	=8	=8	=8	=8	=8
1I	A-:1	9.511	.	bass	1A- 1cc 1ee-
=9	=9	=9	=9	=9	=9
1I	A-:1	10.807	.	bass	1A- 1cc 1ee-
=10	=10	=10	=10	=10	=10
1I	A-:1	12.102	.	bass	1A- 1cc 1ee-
=11	=11	=11	=11	=11	=11
*>B2_instrumental	*>B2_instrumental	*>B2_instrumental	*>B2_instrumental	*>B2_instrumental	*>B2_instrumental
1I	A-:maj	13.398	newline	guitar	1A- 1cc 1ee-
=12	=12	=12	=12	=12	=12
1I	A-:maj	14.709	.	guitar	1A- 1cc 1ee-
=13	=13	=13	=13	=13	=13
1I	A-:maj	16.02	.	guitar	1A- 1cc 1ee-
=14	=14	=14	=14	=14	=14
2-VIIe	G-:maj/2	17.332	.	guitar	2G- 2b- 2dd-
2IVc	D-:maj/5	17.987	.	guitar	2d- 2f 2A-
=15	=15	=15	=15	=15	=15
1I	A-:maj	18.643	newline	guitar	1A- 1cc 1ee-
=16	=16	=16	=16	=16	=16
1I	A-:maj	19.944	.	guitar	1A- 1cc 1ee-
=17	=17	=17	=17	=17	=17
1I	A-:maj	21.245	.	guitar	1A- 1cc 1ee-
=18	=18	=18	=18	=18	=18
2-VIIe	G-:maj/2	22.545	.	guitar	2G- 2b- 2dd-
2IVc	D-:maj/5	23.196	.	guitar	2d- 2f 2A-
=19	=19	=19	=19	=19	=19
*>B_verse	*>B_verse	*>B_verse	*>B_verse	*>B_verse	*>B_verse
1I	A-:maj	23.846	newline	voice	1A- 1cc 1ee-
=20	=20	=20	=20	=20	=20
1I	A-:maj	25.141	.	voice	1A- 1cc 1ee-
=21	=21	=21	=21	=21	=21
1I	A-:maj	26.436	.	voice	1A- 1cc 1ee-
=22	=22	=22	=22	=22	=22
2-VIIe	G-:maj/2	27.73	.	voice	2G- 2b- 2dd-
2IVc	D-:maj/5	28.378	.	voice	2d- 2f 2A-
=23	=23	=23	=23	=23	=23
1I	A-:maj	29.025	newline	voice	1A- 1cc 1ee-
=24	=24	=24	=24	=24	=24
1I	A-:maj	30.329	.	voice	1A- 1cc 1ee-
=25	=25	=25	=25	=25	=25
1I	A-:maj	31.634	.	voice	1A- 1cc 1ee-
=26	=26	=26	=26	=26	=26
2-VIIe	G-:maj/2	32.938	.	voice	2G- 2b- 2dd-
2IVc	D-:maj/5	33.59	.	voice	2d- 2f 2A-
=27	=27	=27	=27	=27	=27
1I	A-:maj	34.242	newline	voice	1A- 1cc 1ee-
=28	=28	=28	=28	=28	=28
1I	A-:maj	35.544	.	voice	1A- 1cc 1ee-
=29	=29	=29	=29	=29	=29
1I	A-:maj	36.847	.	voice	1A- 1cc 1ee-
=30	=30	=30	=30	=30	=30
2-VIIe	G-:maj/2	38.149	.	voice	2G- 2b- 2dd-
2IVc	D-:maj/5	38.8	.	voice	2d- 2f 2A-
=31	=31	=31	=31	=31	=31
1I	A-:maj	39.451	newline	voice	1A- 1cc 1ee-
=32	=32	=32	=32	=32	=32
1I	A-:maj	40.745	.	voice	1A- 1cc 1ee-
=33	=33	=33	=33	=33	=33
1I	A-:maj	42.04	.	voice	1A- 1cc 1ee-
=34	=34	=34	=34	=34	=34
2-VIIe	G-:maj/2	43.334	.	voice	2G- 2b- 2dd-
2IVc	D-:maj/5	43.981	.	voice	2d- 2f 2A-
=35	=35	=35	=35	=35	=35
*>C_prechorus	*>C_prechorus	*>C_prechorus	*>C_prechorus	*>C_prechorus	*>C_prechorus
1V	E-:maj	44.629	newline	voice	1E- 1g 1b-
=36	=36	=36	=36	=36	=36
2V	E-:maj	45.929	.	voice	2E- 2g 2b-
2-VII	G-:1	46.579	.	voice	2G- 2b- 2dd-
=37	=37	=37	=37	=37	=37
1V	E-:maj	47.229	.	voice	1E- 1g 1b-
=38	=38	=38	=38	=38	=38
2V	E-:maj	48.53	.	voice	2E- 2g 2b-
2-VII	G-:1	49.18	.	voice	2G- 2b- 2dd-
=39	=39	=39	=39	=39	=39
1V	E-:maj	49.83	newline	voice	1E- 1g 1b-
=40	=40	=40	=40	=40	=40
2V	E-:maj	51.136	.	voice	2E- 2g 2b-
2-VII	G-:1	51.789	.	voice	2G- 2b- 2dd-
=41	=41	=41	=41	=41	=41
1V	E-:maj	52.442	.	voice	1E- 1g 1b-
=42	=42	=42	=42	=42	=42
2V	E-:maj	53.748	.	voice	2E- 2g 2b-
2-VII	G-:1	54.401	.	voice	2G- 2b- 2dd-
=43	=43	=43	=43	=43	=43
*>D_chorus	*>D_chorus	*>D_chorus	*>D_chorus	*>D_chorus	*>D_chorus
1I	A-:maj	55.055	newline	voice	1A- 1cc 1ee-
=44	=44	=44	=44	=44	=44
1I	A-:maj	56.349	.	voice	1A- 1cc 1ee-
=45	=45	=45	=45	=45	=45
1-VII	G-:maj	57.644	.	voice	1G- 1b- 1dd-
=46	=46	=46	=46	=46	=46
1IV	D-:maj	58.938	.	voice	1D- 1f 1a-
=47	=47	=47	=47	=47	=47
1I	A-:maj	60.233	newline	voice	1A- 1cc 1ee-
=48	=48	=48	=48	=48	=48
1I	A-:maj	61.534	.	voice	1A- 1cc 1ee-
=49	=49	=49	=49	=49	=49
1-VII	G-:maj	62.835	.	voice	1G- 1b- 1dd-
=50	=50	=50	=50	=50	=50
1IV	D-:maj	64.136	.	voice	1D- 1f 1a-
=51	=51	=51	=51	=51	=51
1I	A-:maj	65.437	newline	voice	1A- 1cc 1ee-
=52	=52	=52	=52	=52	=52
1I	A-:maj	66.737	.	voice	1A- 1cc 1ee-
=53	=53	=53	=53	=53	=53
1-VII	G-:maj	68.036	.	voice	1G- 1b- 1dd-
=54	=54	=54	=54	=54	=54
1IV	D-:maj	69.336	.	voice	1D- 1f 1a-
=55	=55	=55	=55	=55	=55
1V	E-:maj	70.635	newline	voice	1E- 1g 1b-
=56	=56	=56	=56	=56	=56
1V	E-:maj	71.935	.	voice	1E- 1g 1b-
=57	=57	=57	=57	=57	=57
1r	N	73.236	.	voice	1r
=58	=58	=58	=58	=58	=58
1r	N	74.536	.	voice	1r
=59	=59	=59	=59	=59	=59
*>B_verse	*>B_verse	*>B_verse	*>B_verse	*>B_verse	*>B_verse
1I	A-:maj	75.836	newline	voice	1A- 1cc 1ee-
=60	=60	=60	=60	=60	=60
1I	A-:maj	77.137	.	voice	1A- 1cc 1ee-
=61	=61	=61	=61	=61	=61
1I	A-:maj	78.437	.	voice	1A- 1cc 1ee-
=62	=62	=62	=62	=62	=62
2-VIIe	G-:maj/2	79.737	.	voice	2G- 2b- 2dd-
2IVc	D-:maj/5	80.387	.	voice	2d- 2f 2A-
=63	=63	=63	=63	=63	=63
1I	A-:maj	81.038	newline	voice	1A- 1cc 1ee-
=64	=64	=64	=64	=64	=64
1I	A-:maj	82.338	.	voice	1A- 1cc 1ee-
=65	=65	=65	=65	=65	=65
1I	A-:maj	83.638	.	voice	1A- 1cc 1ee-
=66	=66	=66	=66	=66	=66
2-VIIe	G-:maj/2	84.939	.	voice	2G- 2b- 2dd-
2IVc	D-:maj/5	85.589	.	voice	2d- 2f 2A-
=67	=67	=67	=67	=67	=67
1I	A-:maj	86.239	newline	voice	1A- 1cc 1ee-
=68	=68	=68	=68	=68	=68
1I	A-:maj	87.551	.	voice	1A- 1cc 1ee-
=69	=69	=69	=69	=69	=69
1I	A-:maj	88.863	.	voice	1A- 1cc 1ee-
=70	=70	=70	=70	=70	=70
2-VIIe	G-:maj/2	90.175	.	voice	2G- 2b- 2dd-
2IVc	D-:maj/5	90.831	.	voice	2d- 2f 2A-
=71	=71	=71	=71	=71	=71
1I	A-:maj	91.487	newline	voice	1A- 1cc 1ee-
=72	=72	=72	=72	=72	=72
1I	A-:maj	92.775	.	voice	1A- 1cc 1ee-
=73	=73	=73	=73	=73	=73
1I	A-:maj	94.064	.	voice	1A- 1cc 1ee-
=74	=74	=74	=74	=74	=74
2-VIIe	G-:maj/2	95.353	.	voice	2G- 2b- 2dd-
2IV	D-:maj	95.997	.	voice	2D- 2f 2a-
=75	=75	=75	=75	=75	=75
*>C_prechorus	*>C_prechorus	*>C_prechorus	*>C_prechorus	*>C_prechorus	*>C_prechorus
1V	E-:maj	96.641	newline	voice	1E- 1g 1b-
=76	=76	=76	=76	=76	=76
2V	E-:maj	97.942	.	voice	2E- 2g 2b-
2-VII	G-:1	98.592	.	voice	2G- 2b- 2dd-
=77	=77	=77	=77	=77	=77
1V	E-:maj	99.242	.	voice	1E- 1g 1b-
=78	=78	=78	=78	=78	=78
2V	E-:maj	100.542	.	voice	2E- 2g 2b-
2-VII	G-:1	101.193	.	voice	2G- 2b- 2dd-
=79	=79	=79	=79	=79	=79
1V	E-:maj	101.843	newline	voice	1E- 1g 1b-
=80	=80	=80	=80	=80	=80
2V	E-:maj	103.149	.	voice	2E- 2g 2b-
2-VII	G-:1	103.802	.	voice	2G- 2b- 2dd-
=81	=81	=81	=81	=81	=81
1V	E-:maj	104.455	.	voice	1E- 1g 1b-
=82	=82	=82	=82	=82	=82
2V	E-:maj	105.761	.	voice	2E- 2g 2b-
2-VII	G-:1	106.414	.	voice	2G- 2b- 2dd-
=83	=83	=83	=83	=83	=83
*>D_chorus	*>D_chorus	*>D_chorus	*>D_chorus	*>D_chorus	*>D_chorus
1I	A-:maj	107.067	newline	voice	1A- 1cc 1ee-
=84	=84	=84	=84	=84	=84
1I	A-:maj	108.364	.	voice	1A- 1cc 1ee-
=85	=85	=85	=85	=85	=85
1-VII	G-:maj	109.661	.	voice	1G- 1b- 1dd-
=86	=86	=86	=86	=86	=86
1IV	D-:maj	110.958	.	voice	1D- 1f 1a-
=87	=87	=87	=87	=87	=87
1I	A-:maj	112.255	newline	voice	1A- 1cc 1ee-
=88	=88	=88	=88	=88	=88
1I	A-:maj	113.559	.	voice	1A- 1cc 1ee-
=89	=89	=89	=89	=89	=89
1-VII	G-:maj	114.862	.	voice	1G- 1b- 1dd-
=90	=90	=90	=90	=90	=90
1IV	D-:maj	116.166	.	voice	1D- 1f 1a-
=91	=91	=91	=91	=91	=91
1I	A-:maj	117.47	newline	voice	1A- 1cc 1ee-
=92	=92	=92	=92	=92	=92
1I	A-:maj	118.77	.	voice	1A- 1cc 1ee-
=93	=93	=93	=93	=93	=93
1-VII	G-:maj	120.07	.	voice	1G- 1b- 1dd-
=94	=94	=94	=94	=94	=94
1IV	D-:maj	121.371	.	voice	1D- 1f 1a-
=95	=95	=95	=95	=95	=95
1V	E-:maj	122.671	newline	voice	1E- 1g 1b-
=96	=96	=96	=96	=96	=96
1V	E-:maj	123.971	.	voice	1E- 1g 1b-
=97	=97	=97	=97	=97	=97
1-VII	G-:5	125.272	.	voice	1G- 1b- 1dd-
=98	=98	=98	=98	=98	=98
2-VII	G-:5	126.572	.	voice	2G- 2b- 2dd-
2vii	G:5	127.222	.	voice	2G 2b- 2dd
=99	=99	=99	=99	=99	=99
*>E_bridge	*>E_bridge	*>E_bridge	*>E_bridge	*>E_bridge	*>E_bridge
1IV	D-:maj	127.872	newline	voice	1D- 1f 1a-
=100	=100	=100	=100	=100	=100
1IV	D-:maj	129.173	.	voice	1D- 1f 1a-
=101	=101	=101	=101	=101	=101
1I	A-:maj	130.473	.	voice	1A- 1cc 1ee-
=102	=102	=102	=102	=102	=102
1I	A-:maj	131.773	.	voice	1A- 1cc 1ee-
=103	=103	=103	=103	=103	=103
1IV	D-:maj	133.074	newline	voice	1D- 1f 1a-
=104	=104	=104	=104	=104	=104
1IV	D-:maj	134.374	.	voice	1D- 1f 1a-
=105	=105	=105	=105	=105	=105
2I	A-:maj	135.674	.	voice	2A- 2cc 2ee-
2IVc	D-:maj/5	136.324	.	voice	2d- 2f 2A-
=106	=106	=106	=106	=106	=106
1I	A-:maj	136.975	.	voice	1A- 1cc 1ee-
=107	=107	=107	=107	=107	=107
1IV	D-:maj	138.275	newline	voice	1D- 1f 1a-
=108	=108	=108	=108	=108	=108
1IV	D-:maj	139.564	.	voice	1D- 1f 1a-
=109	=109	=109	=109	=109	=109
1I	A-:maj	140.852	.	voice	1A- 1cc 1ee-
=110	=110	=110	=110	=110	=110
1I	A-:maj	142.141	.	voice	1A- 1cc 1ee-
=111	=111	=111	=111	=111	=111
1V	E-:maj	143.43	newline	voice	1E- 1g 1b-
=112	=112	=112	=112	=112	=112
1V	E-:maj	144.724	.	voice	1E- 1g 1b-
=113	=113	=113	=113	=113	=113
1r	N	146.019	.	voice	1r
=114	=114	=114	=114	=114	=114
1r	N	147.313	.	voice	1r
=115	=115	=115	=115	=115	=115
*>D_solo	*>D_solo	*>D_solo	*>D_solo	*>D_solo	*>D_solo
1I	A-:maj	148.608	newline	guitar	1A- 1cc 1ee-
=116	=116	=116	=116	=116	=116
1I	A-:maj	149.92	.	guitar	1A- 1cc 1ee-
=117	=117	=117	=117	=117	=117
1-VII	G-:maj	151.232	.	guitar	1G- 1b- 1dd-
=118	=118	=118	=118	=118	=118
1IV	D-:maj	152.543	.	guitar	1D- 1f 1a-
=119	=119	=119	=119	=119	=119
1I	A-:maj	153.855	newline	guitar	1A- 1cc 1ee-
=120	=120	=120	=120	=120	=120
1I	A-:maj	155.156	.	guitar	1A- 1cc 1ee-
=121	=121	=121	=121	=121	=121
1-VII	G-:maj	156.456	.	guitar	1G- 1b- 1dd-
=122	=122	=122	=122	=122	=122
1IV	D-:maj	157.756	.	guitar	1D- 1f 1a-
=123	=123	=123	=123	=123	=123
1I	A-:maj	159.057	newline	guitar	1A- 1cc 1ee-
=124	=124	=124	=124	=124	=124
1I	A-:maj	160.357	.	guitar	1A- 1cc 1ee-
=125	=125	=125	=125	=125	=125
1-VII	G-:maj	161.657	.	guitar	1G- 1b- 1dd-
=126	=126	=126	=126	=126	=126
1IV	D-:maj	162.958	.	guitar	1D- 1f 1a-
=127	=127	=127	=127	=127	=127
1V	E-:maj	164.258	newline	guitar	1E- 1g 1b-
=128	=128	=128	=128	=128	=128
1V	E-:maj	165.558	.	guitar	1E- 1g 1b-
=129	=129	=129	=129	=129	=129
1-VII	G-:5	166.859	.	guitar	1G- 1b- 1dd-
=130	=130	=130	=130	=130	=130
2-VII	G-:5	168.159	.	guitar	2G- 2b- 2dd-
2vii	G:5	168.809	.	guitar	2G 2b- 2dd
=131	=131	=131	=131	=131	=131
*>F_interlude	*>F_interlude	*>F_interlude	*>F_interlude	*>F_interlude	*>F_interlude
1I	A-:maj	169.459	newline	voice	1A- 1cc 1ee-
=132	=132	=132	=132	=132	=132
1I	A-:maj	170.76	.	voice	1A- 1cc 1ee-
=133	=133	=133	=133	=133	=133
1I	A-:maj	172.06	.	voice	1A- 1cc 1ee-
=134	=134	=134	=134	=134	=134
1I	A-:maj	173.36	.	voice	1A- 1cc 1ee-
=135	=135	=135	=135	=135	=135
1I	A-:maj	174.66	newline	voice	1A- 1cc 1ee-
=136	=136	=136	=136	=136	=136
1I	A-:maj	175.961	.	voice	1A- 1cc 1ee-
=137	=137	=137	=137	=137	=137
1IV	D-:maj	177.261	.	voice	1D- 1f 1a-
=138	=138	=138	=138	=138	=138
1IV	D-:maj	178.561	.	voice	1D- 1f 1a-
=139	=139	=139	=139	=139	=139
1-VII	G-:maj	179.862	newline	guitar	1G- 1b- 1dd-
=140	=140	=140	=140	=140	=140
1-VII	G-:maj	181.15	.	guitar	1G- 1b- 1dd-
=141	=141	=141	=141	=141	=141
*>D_chorus	*>D_chorus	*>D_chorus	*>D_chorus	*>D_chorus	*>D_chorus
1I	A-:maj	182.439	newline	voice	1A- 1cc 1ee-
=142	=142	=142	=142	=142	=142
1I	A-:maj	183.745	.	voice	1A- 1cc 1ee-
=143	=143	=143	=143	=143	=143
1-VII	G-:maj	185.051	.	voice	1G- 1b- 1dd-
=144	=144	=144	=144	=144	=144
1IV	D-:maj	186.358	.	voice	1D- 1f 1a-
=145	=145	=145	=145	=145	=145
1I	A-:maj	187.664	newline	voice	1A- 1cc 1ee-
=146	=146	=146	=146	=146	=146
1I	A-:maj	188.958	.	voice	1A- 1cc 1ee-
=147	=147	=147	=147	=147	=147
1-VII	G-:maj	190.253	.	voice	1G- 1b- 1dd-
=148	=148	=148	=148	=148	=148
1IV	D-:maj	191.547	.	voice	1D- 1f 1a-
=149	=149	=149	=149	=149	=149
1I	A-:maj	192.842	newline	voice	1A- 1cc 1ee-
=150	=150	=150	=150	=150	=150
1I	A-:maj	194.142	.	voice	1A- 1cc 1ee-
=151	=151	=151	=151	=151	=151
1-VII	G-:maj	195.442	.	voice	1G- 1b- 1dd-
=152	=152	=152	=152	=152	=152
1IV	D-:maj	196.743	.	voice	1D- 1f 1a-
=153	=153	=153	=153	=153	=153
1I	A-:maj	198.043	newline	voice	1A- 1cc 1ee-
=154	=154	=154	=154	=154	=154
1I	A-:maj	199.349	.	voice	1A- 1cc 1ee-
=155	=155	=155	=155	=155	=155
1-VII	G-:maj	200.655	.	voice	1G- 1b- 1dd-
=156	=156	=156	=156	=156	=156
1IV	D-:maj	201.961	.	voice	1D- 1f 1a-
=157	=157	=157	=157	=157	=157
*>D_chorus	*>D_chorus	*>D_chorus	*>D_chorus	*>D_chorus	*>D_chorus
1I	A-:maj	203.267	newline	voice	1A- 1cc 1ee-
=158	=158	=158	=158	=158	=158
1I	A-:maj	204.568	.	voice	1A- 1cc 1ee-
=159	=159	=159	=159	=159	=159
1-VII	G-:maj	205.868	.	voice	1G- 1b- 1dd-
=160	=160	=160	=160	=160	=160
1IV	D-:maj	207.168	.	voice	1D- 1f 1a-
=161	=161	=161	=161	=161	=161
*>_fadeout	*>_fadeout	*>_fadeout	*>_fadeout	*>_fadeout	*>_fadeout
1I	A-:maj	208.469	newline	voice	1A- 1cc 1ee-
=162	=162	=162	=162	=162	=162
1I	A-:maj	209.769	.	voice	1A- 1cc 1ee-
=163	=163	=163	=163	=163	=163
1-VII	G-:maj	211.069	.	voice	1G- 1b- 1dd-
=164	=164	=164	=164	=164	=164
1IV	D-:maj	212.37	.	voice	1D- 1f 1a-
=165	=165	=165	=165	=165	=165
1I	A-:maj	213.67	newline	voice	1A- 1cc 1ee-
=166	=166	=166	=166	=166	=166
1I	A-:maj	214.97	.	voice	1A- 1cc 1ee-
=167	=167	=167	=167	=167	=167
1-VII	G-:maj	216.271	.	voice	1G- 1b- 1dd-
=168	=168	=168	=168	=168	=168
1IV	D-:maj	217.571	.	voice	1D- 1f 1a-
=169	=169	=169	=169	=169	=169
1I	A-:maj	218.871	newline	voice	1A- 1cc 1ee-
=170	=170	=170	=170	=170	=170
1I	A-:maj	220.107	.	voice	1A- 1cc 1ee-
=171	=171	=171	=171	=171	=171
1-VII	G-:maj	221.342	.	voice	1G- 1b- 1dd-
=172	=172	=172	=172	=172	=172
1IV	D-:maj	222.577	.	voice	1D- 1f 1a-
=173	=173	=173	=173	=173	=173
1I	A-:maj	223.812	.	voice	1A- 1cc 1ee-
1r;	N	225.048	.	r	1r;
1r;	N	229.46	.	r	1r;
*-	*-	*-	*-	*-	*-
!!!OTL: Unskinny Bop
!!!COC: Poison
!!!BillboardChartDate: 1990/09/15
!!!BillboardPeak: 3
!!!BillboardWeeksOnChart: 19
!!!SampleTargetRank: 3
!!!SampleActualRank: 5
!!!SampleID#: 0810
!!!RDF**harmony: **recip + pitch class of root + harmonic quality
!!!RDF**harte: Chris Harte's syntax, used by MIREX
!!!RDF**phrase: newline = linebreak in original McGill transcription
!!!RDF**timestamp: McGill audio timestamp in seconds
!!!RDF**leadinstrument: original McGill primary instrumentation annotation
!!!RDT: 2017/01/12/
!!!ENC: Nathaniel Condit-Schultz
!!!EST: Awating manual error checking and editing.
